X: 3625
T: Bill Malley's
R: barndance
M: 4/4
K: Dmajor
DCDE EFDF|ABAF D2 A2|F2 D2 A2 D2|EFED E2 AF|
DCDE F2 DF|ABAF D2 E/F/G|F2 ED B,2 A,/B,/C|D4 D4|
DCDE FA,DF|ABAF D2 A2|F2 D2 A2 D2|EFED E2 AF|
DCDE EFDF|ABAF D2 E/F/G|F2 ED B,2 A,/B,/C|D4 D2 d2||
B2 A2 d3 B|ABAF D2 d2|B2 AB AFDE|F2 E2 E2 d2|
B2 A2 d3 B|ABAF D2 E/F/G|F2 ED B,2 A,/B,/C|D4 D2 d2|
B2 A2 d3 B|ABAF D2 d2|B2 AB AFDE|F2 ED E2 d2|
B2 A2 d3 B|ABAF D2 E/F/G|F2 ED B,2 A,/B,/C|D4 D4||

